Numix-Light/16/status/indicator-keyboard-Lv-3.svg

<?xml version="1.0" encoding="UTF-8" standalone="no"?>
<svg
   xmlns:dc="http://purl.org/dc/elements/1.1/"
   xmlns:cc="http://creativecommons.org/ns#"
   xmlns:rdf="http://www.w3.org/1999/02/22-rdf-syntax-ns#"
   xmlns:svg="http://www.w3.org/2000/svg"
   xmlns="http://www.w3.org/2000/svg"
   xmlns:sodipodi="http://sodipodi.sourceforge.net/DTD/sodipodi-0.dtd"
   xmlns:inkscape="http://www.inkscape.org/namespaces/inkscape"
   viewBox="0 0 16 16"
   id="svg2"
   version="1.1"
   inkscape:version="0.91 r13725"
   sodipodi:docname="indicator-keyboard-Lv-3.svg">
  <metadata
     id="metadata14">
    <rdf:RDF>
      <cc:Work
         rdf:about="">
        <dc:format>image/svg+xml</dc:format>
        <dc:type
           rdf:resource="http://purl.org/dc/dcmitype/StillImage" />
      </cc:Work>
    </rdf:RDF>
  </metadata>
  <defs
     id="defs12" />
  <sodipodi:namedview
     pagecolor="#ffffff"
     bordercolor="#666666"
     borderopacity="1"
     objecttolerance="10"
     gridtolerance="10"
     guidetolerance="10"
     inkscape:pageopacity="0"
     inkscape:pageshadow="2"
     inkscape:window-width="640"
     inkscape:window-height="480"
     id="namedview10"
     showgrid="false"
     inkscape:zoom="14.75"
     inkscape:cx="8"
     inkscape:cy="8"
     inkscape:window-x="65"
     inkscape:window-y="24"
     inkscape:window-maximized="0"
     inkscape:current-layer="svg2" />
  <path
     style="fill:#353535;fill-opacity:1"
     d="M 1.5996094 0 C 0.71320937 2.9605947e-16 0 0.71320937 0 1.5996094 L 0 14.400391 C 2.9605947e-16 15.286791 0.71320937 16 1.5996094 16 L 14.400391 16 C 15.286791 16 16 15.286791 16 14.400391 L 16 1.5996094 C 16 0.71320937 15.286791 0 14.400391 0 L 1.5996094 0 z M 2.7070312 4.859375 L 3.3183594 4.859375 L 3.3183594 10.564453 L 6.2519531 10.564453 L 6.2519531 11.095703 L 2.7070312 11.095703 L 2.7070312 4.859375 z M 6.3300781 6.4433594 L 6.9511719 6.4433594 C 7.0231719 6.7613594 7.1108906 7.10275 7.2128906 7.46875 C 7.3208906 7.82875 7.4346875 8.1888281 7.5546875 8.5488281 C 7.6806875 8.9028281 7.8094062 9.2479844 7.9414062 9.5839844 C 8.0734063 9.9139846 8.202125 10.208797 8.328125 10.466797 C 8.454125 10.208797 8.5828437 9.9139846 8.7148438 9.5839844 C 8.8468437 9.2479844 8.97375 8.9028281 9.09375 8.5488281 C 9.21975 8.1888281 9.3335469 7.82875 9.4355469 7.46875 C 9.5435469 7.10275 9.6330781 6.7613594 9.7050781 6.4433594 L 10.289062 6.4433594 C 10.181062 6.8693594 10.061688 7.289125 9.9296875 7.703125 C 9.7976875 8.117125 9.6578125 8.5219688 9.5078125 8.9179688 C 9.3638125 9.3139687 9.2108281 9.6945467 9.0488281 10.060547 C 8.8928281 10.426547 8.7398437 10.771703 8.5898438 11.095703 L 8.03125 11.095703 C 7.87525 10.771703 7.7185 10.426547 7.5625 10.060547 C 7.4065 9.6945467 7.2535156 9.3139687 7.1035156 8.9179688 C 6.9595156 8.5219688 6.8214531 8.117125 6.6894531 7.703125 C 6.5574531 7.289125 6.4380781 6.8693594 6.3300781 6.4433594 z M 11.925781 8.7539062 C 12.128581 8.7539062 12.301013 8.7793781 12.445312 8.8300781 C 12.593512 8.8807781 12.716953 8.953275 12.814453 9.046875 C 12.911953 9.136575 12.98445 9.2463 13.03125 9.375 C 13.07805 9.4997999 13.101563 9.6350031 13.101562 9.7832031 C 13.101562 10.021103 13.036903 10.217041 12.908203 10.369141 C 12.783403 10.517341 12.620774 10.625106 12.421875 10.691406 C 12.531075 10.718706 12.636882 10.759859 12.738281 10.818359 C 12.843581 10.872959 12.937631 10.945456 13.019531 11.035156 C 13.101431 11.120956 13.16805 11.226762 13.21875 11.351562 C 13.26945 11.476363 13.292969 11.623316 13.292969 11.791016 C 13.292969 11.962616 13.263572 12.119372 13.201172 12.263672 C 13.142672 12.407972 13.052541 12.535331 12.931641 12.644531 C 12.814641 12.749831 12.663768 12.834084 12.480469 12.896484 C 12.297169 12.954984 12.083591 12.984375 11.837891 12.984375 C 11.709191 12.984375 11.589669 12.974578 11.480469 12.955078 C 11.375169 12.939478 11.281119 12.919884 11.199219 12.896484 C 11.117319 12.873084 11.046781 12.849572 10.988281 12.826172 C 10.933681 12.802772 10.892534 12.783178 10.865234 12.767578 L 10.964844 12.427734 C 10.988244 12.443334 11.027431 12.462928 11.082031 12.486328 C 11.136631 12.509728 11.201291 12.533241 11.275391 12.556641 C 11.353391 12.576141 11.439603 12.593775 11.533203 12.609375 C 11.630703 12.624975 11.736509 12.632813 11.849609 12.632812 C 12.220109 12.632812 12.484631 12.556397 12.644531 12.404297 C 12.804431 12.248297 12.884766 12.040597 12.884766 11.779297 C 12.884766 11.607697 12.851456 11.464663 12.785156 11.351562 C 12.722756 11.238463 12.634584 11.148331 12.521484 11.082031 C 12.412284 11.011831 12.282966 10.962847 12.134766 10.935547 C 11.990466 10.904347 11.837628 10.888672 11.673828 10.888672 L 11.615234 10.888672 L 11.615234 10.574219 L 11.75 10.574219 C 11.8553 10.574219 11.961112 10.564422 12.070312 10.544922 C 12.183412 10.521522 12.2853 10.480375 12.375 10.421875 C 12.4686 10.363375 12.545016 10.285 12.603516 10.1875 C 12.665916 10.09 12.697266 9.9646001 12.697266 9.8125 C 12.697266 9.6838 12.675713 9.5760281 12.632812 9.4863281 C 12.589912 9.3927281 12.531131 9.3182719 12.457031 9.2636719 C 12.386831 9.2090719 12.302578 9.1698844 12.205078 9.1464844 C 12.111478 9.1191844 12.013503 9.1054687 11.908203 9.1054688 C 11.697603 9.1054688 11.533016 9.1348594 11.416016 9.1933594 C 11.299016 9.2518594 11.203006 9.3067219 11.128906 9.3574219 L 10.964844 9.0585938 C 11.003844 9.0312937 11.052828 8.9999437 11.111328 8.9648438 C 11.173728 8.9297437 11.246225 8.8964344 11.328125 8.8652344 C 11.410025 8.8340344 11.500156 8.8085625 11.597656 8.7890625 C 11.699056 8.7656625 11.808781 8.7539062 11.925781 8.7539062 z "
     id="path4" />
</svg>

<svg xmlns="http://www.w3.org/2000/svg" viewBox="0 0 16 16">
 <path d="m 1.6 0 c -0.886 0 -1.6 0.713 -1.6 1.6 l 0 12.801 c 0 0.886 0.713 1.6 1.6 1.6 l 12.801 0 c 0.886 0 1.6 -0.713 1.6 -1.6 l 0 -12.801 c 0 -0.886 -0.713 -1.6 -1.6 -1.6 l -12.801 0 z m 1.107 4.859 l 0.611 0 l 0 5.705 l 2.934 0 l 0 0.531 l -3.545 0 l 0 -6.236 z m 3.623 1.584 l 0.621 0 c 0.072 0.318 0.16 0.659 0.262 1.025 c 0.108 0.36 0.222 0.72 0.342 1.08 c 0.126 0.354 0.255 0.699 0.387 1.035 c 0.132 0.33 0.261 0.625 0.387 0.883 c 0.126 -0.258 0.255 -0.553 0.387 -0.883 c 0.132 -0.336 0.259 -0.681 0.379 -1.035 c 0.126 -0.36 0.24 -0.72 0.342 -1.08 c 0.108 -0.366 0.198 -0.707 0.27 -1.025 l 0.584 0 c -0.108 0.426 -0.227 0.846 -0.359 1.26 c -0.132 0.414 -0.272 0.819 -0.422 1.215 c -0.144 0.396 -0.297 0.777 -0.459 1.143 c -0.156 0.366 -0.309 0.711 -0.459 1.035 l -0.559 0 c -0.156 -0.324 -0.313 -0.669 -0.469 -1.035 c -0.156 -0.366 -0.309 -0.747 -0.459 -1.143 c -0.144 -0.396 -0.282 -0.801 -0.414 -1.215 c -0.132 -0.414 -0.251 -0.834 -0.359 -1.26 z m 5.596 2.311 c 0.203 0 0.375 0.025 0.52 0.076 c 0.148 0.051 0.272 0.123 0.369 0.217 c 0.098 0.09 0.17 0.199 0.217 0.328 c 0.047 0.125 0.07 0.26 0.07 0.408 c 0 0.238 -0.065 0.434 -0.193 0.586 c -0.125 0.148 -0.287 0.256 -0.486 0.322 c 0.109 0.027 0.215 0.068 0.316 0.127 c 0.105 0.055 0.199 0.127 0.281 0.217 c 0.082 0.086 0.149 0.192 0.199 0.316 c 0.051 0.125 0.074 0.272 0.074 0.439 c 0 0.172 -0.029 0.328 -0.092 0.473 c -0.059 0.144 -0.149 0.272 -0.27 0.381 c -0.117 0.105 -0.268 0.19 -0.451 0.252 c -0.183 0.059 -0.397 0.088 -0.643 0.088 c -0.129 0 -0.248 -0.01 -0.357 -0.029 c -0.105 -0.016 -0.199 -0.035 -0.281 -0.059 c -0.082 -0.023 -0.152 -0.047 -0.211 -0.07 c -0.055 -0.023 -0.096 -0.043 -0.123 -0.059 l 0.1 -0.34 c 0.023 0.016 0.063 0.035 0.117 0.059 c 0.055 0.023 0.119 0.047 0.193 0.07 c 0.078 0.019 0.164 0.037 0.258 0.053 c 0.098 0.016 0.203 0.023 0.316 0.023 c 0.371 0 0.635 -0.076 0.795 -0.229 c 0.16 -0.156 0.24 -0.364 0.24 -0.625 c 0 -0.172 -0.033 -0.315 -0.1 -0.428 c -0.062 -0.113 -0.151 -0.203 -0.264 -0.27 c -0.109 -0.07 -0.239 -0.119 -0.387 -0.146 c -0.144 -0.031 -0.297 -0.047 -0.461 -0.047 l -0.059 0 l 0 -0.314 l 0.135 0 c 0.105 0 0.211 -0.01 0.32 -0.029 c 0.113 -0.023 0.215 -0.065 0.305 -0.123 c 0.094 -0.059 0.17 -0.137 0.229 -0.234 c 0.062 -0.098 0.094 -0.223 0.094 -0.375 c 0 -0.129 -0.022 -0.236 -0.064 -0.326 c -0.043 -0.094 -0.102 -0.168 -0.176 -0.223 c -0.07 -0.055 -0.154 -0.094 -0.252 -0.117 c -0.094 -0.027 -0.192 -0.041 -0.297 -0.041 c -0.211 0 -0.375 0.029 -0.492 0.088 c -0.117 0.059 -0.213 0.113 -0.287 0.164 l -0.164 -0.299 c 0.039 -0.027 0.088 -0.059 0.146 -0.094 c 0.062 -0.035 0.135 -0.068 0.217 -0.1 c 0.082 -0.031 0.172 -0.057 0.27 -0.076 c 0.101 -0.023 0.211 -0.035 0.328 -0.035 z" style="fill:#353535;fill-opacity:1"/>
</svg>
